src/components/Careers/Benefits/images/home-office.svg

<svg xmlns="http://www.w3.org/2000/svg" width="70" height="69" fill="none" viewBox="0 0 70 69"><path fill="#FF1794" fill-opacity=".2" d="M7.06104 36.509C7.06104 36.1266 7.20346 35.7578 7.46055 35.4746L33.6064 6.67627L60.4628 33.1544C60.7561 33.4436 60.9213 33.8383 60.9213 34.2502V67.4614C60.9213 68.3113 60.2323 69.0002 59.3824 69.0002H8.5999C7.75001 69.0002 7.06104 68.3113 7.06104 67.4614V36.509Z"/><mask id="path-2-inside-1" fill="#fff"><path fill-rule="evenodd" d="M35.3343 0.685486C34.2117 -0.305389 32.4876 -0.208278 31.4833 0.902394L1.11116 34.4931C0.106907 35.6037 0.202864 37.3074 1.32548 38.2983C2.4481 39.2891 4.17227 39.192 5.17652 38.0813L33.6021 6.64355L64.4343 37.1063C65.4987 38.158 67.2245 38.158 68.2889 37.1063C69.3534 36.0546 69.3534 34.3495 68.289 33.2978L35.7551 1.15374C35.6362 0.985486 35.4959 0.828103 35.3343 0.685486Z" clip-rule="evenodd"/></mask><path fill="#FF1794" fill-opacity=".4" fill-rule="evenodd" d="M35.3343 0.685486C34.2117 -0.305389 32.4876 -0.208278 31.4833 0.902394L1.11116 34.4931C0.106907 35.6037 0.202864 37.3074 1.32548 38.2983C2.4481 39.2891 4.17227 39.192 5.17652 38.0813L33.6021 6.64355L64.4343 37.1063C65.4987 38.158 67.2245 38.158 68.2889 37.1063C69.3534 36.0546 69.3534 34.3495 68.289 33.2978L35.7551 1.15374C35.6362 0.985486 35.4959 0.828103 35.3343 0.685486Z" clip-rule="evenodd"/><path fill="#FF1794" fill-opacity=".6" d="M31.4833 0.902394L30.3419 -0.129689V-0.129688L31.4833 0.902394ZM35.3343 0.685486L34.316 1.83922V1.83922L35.3343 0.685486ZM1.11116 34.4931L-0.0302929 33.461H-0.0302932L1.11116 34.4931ZM1.32548 38.2983L0.307149 39.452H0.307149L1.32548 38.2983ZM5.17652 38.0813L4.03507 37.0493H4.03507L5.17652 38.0813ZM33.6021 6.64355L34.6836 5.54887L33.5394 4.41835L32.4606 5.61146L33.6021 6.64355ZM64.4343 37.1063L65.5158 36.0116L65.5158 36.0116L64.4343 37.1063ZM68.2889 37.1063L67.2074 36.0116L67.2074 36.0116L68.2889 37.1063ZM68.289 33.2978L69.3705 32.2031L69.3705 32.2031L68.289 33.2978ZM35.7551 1.15374L34.498 2.04146L34.5766 2.1527L34.6735 2.24842L35.7551 1.15374ZM32.6248 1.93448C33.0638 1.44888 33.8252 1.40599 34.316 1.83922L36.3527 -0.468244C34.5983 -2.01677 31.9113 -1.86543 30.3419 -0.129689L32.6248 1.93448ZM2.25261 35.5252L32.6248 1.93447L30.3419 -0.129688L-0.0302929 33.461L2.25261 35.5252ZM2.34382 37.1445C1.86379 36.7208 1.82319 36.0001 2.25261 35.5252L-0.0302932 33.461C-1.60938 35.2074 -1.45806 37.8939 0.307149 39.452L2.34382 37.1445ZM4.03507 37.0493C3.596 37.5349 2.83464 37.5777 2.34382 37.1445L0.307149 39.452C2.06157 41.0005 4.74854 40.8492 6.31797 39.1134L4.03507 37.0493ZM32.4606 5.61146L4.03507 37.0493L6.31797 39.1134L34.7435 7.67563L32.4606 5.61146ZM65.5158 36.0116L34.6836 5.54887L32.5205 7.73822L63.3527 38.201L65.5158 36.0116ZM67.2074 36.0116C66.7424 36.4711 65.9808 36.4711 65.5158 36.0116L63.3527 38.201C65.0166 39.8449 67.7066 39.8449 69.3705 38.201L67.2074 36.0116ZM67.2074 34.3925C67.6621 34.8417 67.6621 35.5624 67.2074 36.0116L69.3705 38.201C71.0447 36.5469 71.0447 33.8572 69.3705 32.2031L67.2074 34.3925ZM34.6735 2.24842L67.2074 34.3925L69.3705 32.2031L36.8366 0.0590608L34.6735 2.24842ZM34.316 1.83922C34.3876 1.90236 34.4479 1.97039 34.498 2.04146L37.0121 0.266025C36.8246 0.000585181 36.6043 -0.246158 36.3527 -0.468245L34.316 1.83922Z" mask="url(#path-2-inside-1)"/><rect width="29.238" height="5.386" x="19.372" y="47.456" fill="#FF1794" fill-opacity=".4" rx="2.693"/><rect width="27.7" height="3.847" x="20.141" y="48.225" stroke="#FF1794" stroke-opacity=".4" stroke-width="1.539" rx="1.924"/><rect width="2.308" height="12.311" x="23.989" y="52.842" fill="#FF1794" fill-opacity=".4"/><rect width="2.308" height="12.311" x="41.686" y="52.842" fill="#FF1794" fill-opacity=".4"/><rect width="6.925" height="1.539" x="30.144" y="43.917" fill="#FF1794" fill-opacity=".4" rx=".769"/><rect width="18.466" height="12.311" x="24.758" y="29.837" fill="#FF1794" fill-opacity=".4" rx="1.539"/><rect width="17.697" height="11.541" x="25.142" y="30.222" stroke="#FF1794" stroke-opacity=".4" stroke-width=".769" rx="1.154"/><rect width="15" height="8" x="26.434" y="32" fill="#FF1794" fill-opacity=".4" rx="1.044"/><rect width="14.478" height="7.478" x="26.695" y="32.261" stroke="#FF1794" stroke-opacity=".4" stroke-width=".522" rx=".783"/></svg>

<svg fill="none" viewBox="0 0 70 69"><path fill="#FF1794" fill-opacity=".2" d="M7.061 36.509c0-.382.142-.751.4-1.034L33.606 6.676l26.857 26.478c.293.29.458.684.458 1.096v33.211c0 .85-.689 1.54-1.539 1.54H8.6a1.54 1.54 0 01-1.539-1.54V36.51z"/><mask id="a" fill="#fff"><path fill-rule="evenodd" d="M35.334.685a2.75 2.75 0 00-3.85.217L1.11 34.493a2.672 2.672 0 00.214 3.805 2.75 2.75 0 003.852-.217L33.602 6.644l30.832 30.462a2.749 2.749 0 003.855 0 2.67 2.67 0 000-3.808L35.755 1.154a2.71 2.71 0 00-.42-.469z" clip-rule="evenodd"/></mask><path fill="#FF1794" fill-opacity=".4" fill-rule="evenodd" d="M35.334.685a2.75 2.75 0 00-3.85.217L1.11 34.493a2.672 2.672 0 00.214 3.805 2.75 2.75 0 003.852-.217L33.602 6.644l30.832 30.462a2.749 2.749 0 003.855 0 2.67 2.67 0 000-3.808L35.755 1.154a2.71 2.71 0 00-.42-.469z" clip-rule="evenodd"/><path fill="#FF1794" fill-opacity=".6" d="M31.483.902L30.342-.13 31.483.902zm3.851-.217L34.316 1.84 35.334.685zM1.111 34.493L-.03 33.461l1.141 1.032zm.214 3.805L.307 39.452l1.018-1.154zm3.852-.217L4.035 37.05l1.142 1.032zM33.602 6.644l1.082-1.095-1.145-1.13-1.078 1.192 1.141 1.033zm30.832 30.462l1.082-1.094-1.082 1.094zm3.855 0l-1.082-1.094 1.082 1.094zm0-3.808l1.082-1.095-1.082 1.095zM35.755 1.154l-1.257.887.079.112.096.095 1.082-1.094zm-3.13.78a1.212 1.212 0 011.691-.095l2.037-2.307a4.29 4.29 0 00-6.011.338l2.283 2.064zM2.253 35.525l30.372-33.59L30.342-.13-.03 33.461l2.283 2.064zm.09 1.62a1.133 1.133 0 01-.09-1.62L-.03 33.461a4.211 4.211 0 00.337 5.991l2.037-2.307zm1.692-.096c-.439.486-1.2.529-1.691.096L.307 39.452a4.29 4.29 0 006.011-.339L4.035 37.05zM32.461 5.611L4.035 37.05l2.283 2.064L34.743 7.676 32.462 5.61zm33.055 30.4L34.684 5.55l-2.163 2.19L63.352 38.2l2.163-2.19zm1.691 0a1.21 1.21 0 01-1.691 0l-2.163 2.19a4.288 4.288 0 006.018 0l-2.164-2.19zm0-1.619c.455.45.455 1.17 0 1.62l2.164 2.189a4.21 4.21 0 000-5.998l-2.164 2.19zM34.674 2.248l32.533 32.145 2.164-2.19L36.837.06l-2.164 2.19zm-.358-.409c.072.063.132.131.182.202L37.012.266a4.25 4.25 0 00-.66-.734l-2.036 2.307z" mask="url(#a)"/><rect width="29.238" height="5.386" x="19.372" y="47.456" fill="#FF1794" fill-opacity=".4" rx="2.693"/><rect width="27.7" height="3.847" x="20.141" y="48.225" stroke="#FF1794" stroke-opacity=".4" stroke-width="1.539" rx="1.924"/><path fill="#FF1794" fill-opacity=".4" d="M23.989 52.842h2.308v12.311h-2.308zm17.697 0h2.308v12.311h-2.308z"/><rect width="6.925" height="1.539" x="30.144" y="43.917" fill="#FF1794" fill-opacity=".4" rx=".769"/><rect width="18.466" height="12.311" x="24.758" y="29.837" fill="#FF1794" fill-opacity=".4" rx="1.539"/><rect width="17.697" height="11.541" x="25.142" y="30.222" stroke="#FF1794" stroke-opacity=".4" stroke-width=".769" rx="1.154"/><rect width="15" height="8" x="26.434" y="32" fill="#FF1794" fill-opacity=".4" rx="1.044"/><rect width="14.478" height="7.478" x="26.695" y="32.261" stroke="#FF1794" stroke-opacity=".4" stroke-width=".522" rx=".783"/></svg>
